X:36
T:YNGMNDM1- The Young Man's Dream
S:SMM #126
Q:1/4=120
L:1/4
M:3/4
K:Cm
G/|c/ d/e(d/c/)|(e/4d/4) (c/4=B/4)cG|c/ d/{f/}ed/c/|\
(e/4d/4) (c/4=B/4)c3/2G/|c/d/{d/f/}e(d/c/)|(e/4d/4) c/4=B/4cG|\
c/ d/ ed/c/|(e/4d/4) (c/4=B/4)c||(e/d/4c/4)|\
B3/4 A/4G(F3/4G/8A/8)|G/ F/ E3/4D/4C|E/ F/G(A/G/)|\
(F/4A/4) (G/4F/4)Ee3/4c/4|B3/4 A/4G(F3/4G/8A/8)|\
G3/4 F/4 E3/4D/4c|E/ F/ (G/c/B/) A/|G/4F/4 E/4D/4 C3|]

